X:1
T:Title
%%score 1 2
L:1/8
Q:1/4=120
M:4/4
K:G
V:1 treble nm="Strings 1, Treble"
V:2 bass nm="Strings 1, Bass"
V:1
 [DG]3 [DG] [DG]2 [CE]2 | [B,D]2 [CE]2 [DG]4 | [DG]3 D [CE]2 [CE]2 | [B,D]6 z2 | %4
w: 1.~O~ ye~ sick~ and~|help less~ souls,~|Je sus~ speaks~ to~|you,~|
 [DB]3 [DB] [DB]2 [DG]2 | [DB]2 [DB]2 [DB]2 [DG]2 | [DB]3 [DB] [CA]2 [CA]2 | [B,G]6 [Gd]2 | %8
w: If~ you~ wish~ to~|be~ made~ whole,~ He~|tells~ you~ what~ to~|do�~ O|
 [Gd]3 [Gd] [Gd]2 [DB]2 | [Gd]3 [Gd] [Gd][Gd] [Ge]2 | [GB]3 [GB] [GB]2 [DG]2 | %11
w: bey~ His~ word~ just~|as~ you~ hear~ it,~ Ac|cept~ His~ truth~ and~|
 [DB]2 [DB]2 [DB]2 [Dd]2 | [EG]4 [EG]4 | [EG]2 [CE]>[CE] [B,D]4 | [DG]2 [EG]>[EA] [GB]2 [FA]2 | %15
w: Ho ly~ Spir it,~|A rise,~|take~ up~ your~ bed,~|take~ up~ your~ bed~ and~|
 [DG]6 z2 | [DG]4 [DG]4 | [DG]2 [CE]>[CE] [B,D]4 | [EG]2 [EG]>[EA] [GB]2 [FA]2 | [DG]6 z2 | %20
w: walk.~|||||
 [DB]4 [DB]4 | [DB]2 [Gd]>[GB] [DG]4 | [GB]2 [GB]>[FA] [EG]2 [FA]2 | [GB]6 [Gd]2 | %24
w: |||* O|
 [Gd]3 [Gd] [Gd]2 [DB]2 | [Gd]3 [Gd] [Gd][Gd] [Ge]2 | [GB]3 [GB] [GB]2 [DG]2 | %27
w: you~ would~ word~ just~|as~ you~ bout~ it,~ Ac|cept~ His~ truth~ and~|
 [DB]2 [DB]2 [DB]2 [Dd]2 | [EG]4 [EG]4 | [EG]2 [CE]>[CE] [B,D]4 | [DG]2 [EG]>[EA] [GB]2 [FA]2 | %31
w: Ho not~ Spir it,~|A rise,~|take~ up~ your~ bed,~|take~ up~ your~ bed~ and~|
 [DG]6 z2 |] %32
w: walk.~|
V:2
 [G,,B,]3 [G,,B,] [G,,B,]2 [G,,G,]2 | [G,,G,]2 [G,,G,]2 [G,,B,]4 | %2
 [G,,B,]3 [B,,G,] [C,G,]2 [C,G,]2 | [G,,G,]6 z2 | G,3 G, G,2 [G,B,]2 | G,2 G,2 G,2 [B,,G,]2 | %6
 [D,G,]3 [D,G,] [D,F,]2 [D,F,]2 | [G,,D,]6 [G,B,]2 | [G,B,]3 [G,B,] [G,B,]2 G,2 | %9
 [G,B,]3 [G,B,] [G,B,][G,B,] [G,B,]2 | [G,D]3 [G,D] [G,D]2 [G,B,]2 | G,2 G,2 G,2 [F,A,]2 | %12
 [E,B,]4 [E,B,]4 | [C,C]2 G,>G, G,4 | [G,B,]2 [E,B,]>[E,C] [D,D]2 [D,C]2 | [G,,B,]6 z2 | %16
 [G,,B,]4 [G,,B,]4 | [G,,B,]2 [G,,G,]>[G,,G,] [G,,G,]4 | [G,B,]2 [E,B,]>[E,C] [D,D]2 [D,C]2 | %19
 [G,,B,]6 z2 | G,4 G,4 | G,2 [G,B,]>[G,D] [G,B,]4 | [G,D]2 [G,D]>[D,C] [E,B,]2 [D,D]2 | %23
 [G,D]6 [G,B,]2 | [G,B,]3 [G,B,] [G,B,]2 G,2 | [G,B,]3 [G,B,] [G,B,][G,B,] [G,B,]2 | %26
 [G,D]3 [G,D] [G,D]2 [G,B,]2 | G,2 G,2 G,2 [F,A,]2 | [E,B,]4 [E,B,]4 | [C,C]2 G,>G, G,4 | %30
 [G,B,]2 [E,B,]>[E,C] [D,D]2 [D,C]2 | [G,,B,]6 z2 |] %32

